X:1
T: Simon Brodie
T: 8x32S 3C	(Young: 18th Cent. Dances, No. 33)
P: Clach na Cudain
C: as played by Bill Lamey "Full Circle"
C: arr. T. Traub 10-17-2010
K: D
M: 4/4
L: 1/8
A,|"D"D<DF>E "D"D2 A,2|"D"D<DF>G A>D!beambr1!F<d|"D"D<DF>E "Bm"D2 (3DEF|"G"G>A,F>A, "A"E>A,C<E|"D"D<DF>E "D"D2 A,2|"D"D<DF>E (3DFG "A"(3ABc|
"D"(3dAG (3FGE (3DFA (3dAF|"G"G>A,F>A, "A"E>A,C<E||"D"d>fA>f d/e/f/g/ a>f|"D"d>fe>g f>d!beambr1!f<a|"D"d>fA>f d/e/f/g/ a>f|
"G"g>A"D"f>A "A"e>A!beambr1!c<e|"D"d>fA>f d/e/f/g/ a>f|"D"d>fe>g f>d!beambr1!f<a|"G"B>g"D"A>f "A"G>e"D"F>d|"G"G>A,F>A, "A"E>A,C<E|]